!!!SOCIAL_FUNCTION:	songs of the buffalo society (dream societies)
!!!PDT:	1918

Specific Region: Dakotas, Minnesota, Montana, Nebraska
!!!REG: Dakotas and Montana
!!!LING_GROUP: Siouan
!!!LANG: Tone
!!!OTL@ENG: My Goal
!!!ONM: No. 96
**kern
*Imale
*clefF4
*k[b-e-a-d-g-c-]
*M2/4
*>[A,A]
*>norep[A]
*>A
=!|:
*MM72
16B-
=1
8.f
16f
8.f
16f
=2
4e-
8e-
16e-
16e-
=3
8.e-
16e-
(8e-
8d-)
=4
8.d-
16B-
4d-
=5
4e-
8.e-
16e-
=6
8e-
8d-
8.d-
16e-
=7
8.d-
16d-
8d-
8B-
=8
8.d-
16d-
8.B-
16B-
=9||
*M3/4
8.B-
16B-
8B-
16.G-
32G-
16B-
8.B-
=10
8.B-
16B-
8B-
16G-
16G-
4G-
=11||
*M2/4
8.G-
16G-
8.G-
==:|!
*-
!!!CNT: Native American -- Sioux
!!!MRD: 1911/07//-1914///
!!!OCL: Frances Densmore
!!!YOR1: Teton Sioux Music, Bulletin 61,
!!!YOR2: Bureau of American Ethnology, Smithsonian Institution
!!!PPR: Government Printing Office
!!!PPP: Washington, D.C.
!!!PDT: 1918///
!!!ENC: Craig Stuart Sapp
!!!END: 2002/03/25/
!!!EEV: 2002/03/31/
!!!AGN: Society Song/Song of the Buffalo Society
!!!MPN@@SIO: Wakang'-chika'na
!!!MPN@ENG: Little Conjuror
!!!TXO: Santee Sioux
!!!MLC: Sisseton, South Dakota, United States of America
!!!ARL: 45.6/-97.1:
!!!catalog: Catalogue No. 664
!!!PPG: 287
!!!EFL: 96/245
!!!VTS: 1925393974
